setup-data/footprints/images/Ic-package-TO-218AC.svg

<?xml version="1.0" encoding="UTF-8" standalone="no"?>
<svg
   xmlns:dc="http://purl.org/dc/elements/1.1/"
   xmlns:cc="http://creativecommons.org/ns#"
   xmlns:rdf="http://www.w3.org/1999/02/22-rdf-syntax-ns#"
   xmlns:svg="http://www.w3.org/2000/svg"
   xmlns="http://www.w3.org/2000/svg"
   xmlns:sodipodi="http://sodipodi.sourceforge.net/DTD/sodipodi-0.dtd"
   xmlns:inkscape="http://www.inkscape.org/namespaces/inkscape"
   version="1.0"
   inkscape:output_extension="org.inkscape.output.svg.inkscape"
   sodipodi:docname="Ic-package-TO-218AC.svg"
   inkscape:version="1.0beta2 (2b71d25, 2019-12-03)"
   sodipodi:version="0.32"
   id="svg3938"
   height="189.78624"
   width="221.83162">
  <defs
     id="defs3940" />
  <sodipodi:namedview
     inkscape:window-maximized="0"
     fit-margin-bottom="20"
     fit-margin-right="20"
     fit-margin-left="20"
     lock-margins="true"
     fit-margin-top="20"
     showgrid="false"
     inkscape:document-rotation="0"
     height="100px"
     width="100px"
     inkscape:window-y="23"
     inkscape:window-x="1440"
     inkscape:window-height="1035"
     inkscape:window-width="1920"
     inkscape:current-layer="layer1"
     inkscape:document-units="px"
     inkscape:cy="79.672744"
     inkscape:cx="-30.920498"
     inkscape:zoom="1.4"
     inkscape:pageshadow="2"
     inkscape:pageopacity="0.0"
     objecttolerance="10"
     guidetolerance="10"
     gridtolerance="10000"
     borderopacity="1.0"
     bordercolor="#666666"
     pagecolor="#ffffff"
     id="base" />
  <metadata
     id="metadata3943">
    <rdf:RDF>
      <cc:Work
         rdf:about="">
        <dc:format>image/svg+xml</dc:format>
        <dc:type
           rdf:resource="http://purl.org/dc/dcmitype/StillImage" />
        <dc:title></dc:title>
      </cc:Work>
    </rdf:RDF>
  </metadata>
  <g
     transform="translate(59.436645,45.38703)"
     id="layer1"
     inkscape:groupmode="layer"
     inkscape:label="Layer 1">
    <g
       transform="matrix(-2.25,0,0,2.25,2551.7205,-2127.3925)"
       id="g3912">
      <path
         inkscape:connector-curvature="0"
         style="fill:none;fill-rule:evenodd;stroke:#000000;stroke-width:1px;stroke-linecap:butt;stroke-linejoin:miter;stroke-opacity:1"
         d="m 1093.5088,971.45526 33.0824,-19.1929 -3.2829,-3.0304 c -6.3237,0.4827 -6.3685,-2.5229 -6.8186,-5.3033 l -10.1015,-9.0914 -32.0723,18.1828 11.3642,10.8591 c 3.1557,-0.4106 5.7331,0.2197 5.5558,5.8084 z"
         id="path3864"
         sodipodi:nodetypes="ccccccccc" />
      <path
         inkscape:connector-curvature="0"
         style="fill:none;fill-rule:evenodd;stroke:#000000;stroke-width:1px;stroke-linecap:butt;stroke-linejoin:miter;stroke-opacity:1"
         d="m 1101.4088,937.33466 -0.9411,-0.8824 -19.6296,-0.5357 -6.4762,3.7343 -2.926,16.2823 2.6274,3.1478"
         id="path3866"
         sodipodi:nodetypes="cccccc" />
      <path
         inkscape:connector-curvature="0"
         style="fill:none;fill-rule:evenodd;stroke:#000000;stroke-width:1px;stroke-linecap:butt;stroke-linejoin:miter;stroke-opacity:1"
         d="m 1071.3111,955.94106 0.09,2.8825 3.1678,3.5404"
         id="path3868"
         sodipodi:nodetypes="ccc" />
      <path
         inkscape:connector-curvature="0"
         style="fill:none;fill-rule:evenodd;stroke:#000000;stroke-width:1px;stroke-linecap:butt;stroke-linejoin:miter;stroke-opacity:1"
         d="m 1074.3159,953.27256 -0.1263,9.0914 19.8242,18.5615 5.6821,-3.283"
         id="path3870"
         sodipodi:nodetypes="cccc" />
      <path
         inkscape:connector-curvature="0"
         style="fill:none;fill-rule:evenodd;stroke:#000000;stroke-width:1px;stroke-linecap:butt;stroke-linejoin:miter;stroke-opacity:1"
         d="m 1103.8629,974.99086 7.9549,-4.2932"
         id="path3872"
         sodipodi:nodetypes="cc" />
      <path
         inkscape:connector-curvature="0"
         style="fill:none;fill-rule:evenodd;stroke:#000000;stroke-width:1px;stroke-linecap:butt;stroke-linejoin:miter;stroke-opacity:1"
         d="m 1115.6059,968.29856 7.7024,-4.2931"
         id="path3874"
         sodipodi:nodetypes="cc" />
      <path
         inkscape:connector-curvature="0"
         style="fill:none;fill-rule:evenodd;stroke:#000000;stroke-width:1px;stroke-linecap:butt;stroke-linejoin:miter;stroke-opacity:1"
         d="m 1126.7175,952.26236 v 8.4601"
         id="path3876" />
      <path
         inkscape:connector-curvature="0"
         style="fill:none;fill-rule:evenodd;stroke:#000000;stroke-width:1px;stroke-linecap:butt;stroke-linejoin:miter;stroke-opacity:1"
         d="m 1093.8876,971.32906 v 9.0913"
         id="path3878" />
      <g
         id="g3880"
         transform="translate(-1006.0933,346.89271)">
        <path
           inkscape:connector-curvature="0"
           sodipodi:nodetypes="ccccc"
           id="path3882"
           d="m 2106.2311,625.13079 -2.3991,1.13641 26.8954,24.87501 2.5254,-1.38896 z"
           style="fill:none;fill-rule:evenodd;stroke:#000000;stroke-width:1px;stroke-linecap:butt;stroke-linejoin:miter;stroke-opacity:1" />
        <path
           inkscape:connector-curvature="0"
           sodipodi:nodetypes="ccccc"
           id="path3884"
           d="m 2103.5795,626.01466 v 2.39911 l 26.8953,24.87501 2.9042,-1.64149 0.1263,-1.64149"
           style="fill:none;fill-rule:evenodd;stroke:#000000;stroke-width:1px;stroke-linecap:butt;stroke-linejoin:miter;stroke-opacity:1" />
        <path
           inkscape:connector-curvature="0"
           id="path3886"
           d="m 2130.4748,651.14221 v 1.6415"
           style="fill:none;fill-rule:evenodd;stroke:#000000;stroke-width:1px;stroke-linecap:butt;stroke-linejoin:miter;stroke-opacity:1" />
      </g>
      <g
         id="g3888"
         transform="translate(-994.47646,340.20045)">
        <path
           inkscape:connector-curvature="0"
           sodipodi:nodetypes="ccccc"
           id="path3890"
           d="m 2106.2311,625.13079 -2.3991,1.13641 26.8954,24.87501 2.5254,-1.38896 z"
           style="fill:none;fill-rule:evenodd;stroke:#000000;stroke-width:1px;stroke-linecap:butt;stroke-linejoin:miter;stroke-opacity:1" />
        <path
           inkscape:connector-curvature="0"
           sodipodi:nodetypes="ccccc"
           id="path3892"
           d="m 2103.5795,626.01466 v 2.39911 l 26.8953,24.87501 2.9042,-1.64149 0.1263,-1.64149"
           style="fill:none;fill-rule:evenodd;stroke:#000000;stroke-width:1px;stroke-linecap:butt;stroke-linejoin:miter;stroke-opacity:1" />
        <path
           inkscape:connector-curvature="0"
           id="path3894"
           d="m 2130.4748,651.14221 v 1.6415"
           style="fill:none;fill-rule:evenodd;stroke:#000000;stroke-width:1px;stroke-linecap:butt;stroke-linejoin:miter;stroke-opacity:1" />
      </g>
      <g
         id="g3896"
         transform="translate(-982.48086,333.00312)">
        <path
           inkscape:connector-curvature="0"
           sodipodi:nodetypes="ccccc"
           id="path3898"
           d="m 2106.2311,625.13079 -2.3991,1.13641 26.8954,24.87501 2.5254,-1.38896 z"
           style="fill:none;fill-rule:evenodd;stroke:#000000;stroke-width:1px;stroke-linecap:butt;stroke-linejoin:miter;stroke-opacity:1" />
        <path
           inkscape:connector-curvature="0"
           sodipodi:nodetypes="ccccc"
           id="path3900"
           d="m 2103.5795,626.01466 v 2.39911 l 26.8953,24.87501 2.9042,-1.64149 0.1263,-1.64149"
           style="fill:none;fill-rule:evenodd;stroke:#000000;stroke-width:1px;stroke-linecap:butt;stroke-linejoin:miter;stroke-opacity:1" />
        <path
           inkscape:connector-curvature="0"
           id="path3902"
           d="m 2130.4748,651.14221 v 1.6415"
           style="fill:none;fill-rule:evenodd;stroke:#000000;stroke-width:1px;stroke-linecap:butt;stroke-linejoin:miter;stroke-opacity:1" />
      </g>
      <ellipse
         ry="3.5986683"
         rx="6.1240497"
         cy="591.54321"
         cx="2089.9424"
         style="fill:none;fill-opacity:1;fill-rule:nonzero;stroke:#000000;stroke-width:1;stroke-miterlimit:4;stroke-dasharray:none;stroke-opacity:1"
         id="path3904"
         transform="translate(-1006.2195,350.1757)" />
      <path
         inkscape:connector-curvature="0"
         style="fill:none;fill-rule:evenodd;stroke:#000000;stroke-width:1px;stroke-linecap:butt;stroke-linejoin:miter;stroke-opacity:1"
         d="m 1077.8514,942.66596 c 4.6047,-4.9222 8.2537,-2.8364 11.8693,-0.5051"
         id="path3906"
         sodipodi:nodetypes="cc" />
      <path
         inkscape:connector-curvature="0"
         style="fill:none;fill-rule:evenodd;stroke:#000000;stroke-width:1px;stroke-linecap:butt;stroke-linejoin:miter;stroke-opacity:1"
         d="m 1085.6801,963.75286 v 6.0609 l 5.4295,5.4296 v -5.5558"
         id="path3908"
         sodipodi:nodetypes="cccc" />
      <path
         inkscape:connector-curvature="0"
         style="fill:none;fill-rule:evenodd;stroke:#000000;stroke-width:1px;stroke-linecap:butt;stroke-linejoin:miter;stroke-opacity:1"
         d="m 1085.6801,969.56126 c 3.0847,-0.4598 4.6984,1.6021 5.4295,5.177 v 0 l -0.1262,-0.1262"
         id="path3910"
         sodipodi:nodetypes="cccc" />
    </g>
  </g>
</svg>

<?xml version="1.0" encoding="UTF-8" standalone="no"?>
<!-- Created with Inkscape (http://www.inkscape.org/) -->
<svg
   xmlns:dc="http://purl.org/dc/elements/1.1/"
   xmlns:cc="http://web.resource.org/cc/"
   xmlns:rdf="http://www.w3.org/1999/02/22-rdf-syntax-ns#"
   xmlns:svg="http://www.w3.org/2000/svg"
   xmlns="http://www.w3.org/2000/svg"
   xmlns:sodipodi="http://sodipodi.sourceforge.net/DTD/sodipodi-0.dtd"
   xmlns:inkscape="http://www.inkscape.org/namespaces/inkscape"
   width="100"
   height="100"
   id="svg3938"
   sodipodi:version="0.32"
   inkscape:version="0.45.1"
   sodipodi:docbase="/home/zymos/chip/package/homemade/next"
   sodipodi:docname="ic-package-TO-218AC.svg"
   inkscape:output_extension="org.inkscape.output.svg.inkscape"
   version="1.0">
  <defs
     id="defs3940" />
  <sodipodi:namedview
     id="base"
     pagecolor="#ffffff"
     bordercolor="#666666"
     borderopacity="1.0"
     gridtolerance="10000"
     guidetolerance="10"
     objecttolerance="10"
     inkscape:pageopacity="0.0"
     inkscape:pageshadow="2"
     inkscape:zoom="1.4"
     inkscape:cx="79.642857"
     inkscape:cy="34.285714"
     inkscape:document-units="px"
     inkscape:current-layer="layer1"
     inkscape:window-width="697"
     inkscape:window-height="581"
     inkscape:window-x="276"
     inkscape:window-y="357"
     width="100px"
     height="100px" />
  <metadata
     id="metadata3943">
    <rdf:RDF>
      <cc:Work
         rdf:about="">
        <dc:format>image/svg+xml</dc:format>
        <dc:type
           rdf:resource="http://purl.org/dc/dcmitype/StillImage" />
      </cc:Work>
    </rdf:RDF>
  </metadata>
  <g
     inkscape:label="Layer 1"
     inkscape:groupmode="layer"
     id="layer1">
    <g
       id="g3912"
       transform="translate(-1059.7392,-918.00434)">
      <path
         sodipodi:nodetypes="ccccccccc"
         id="path3864"
         d="M 1093.5088,971.45526 L 1126.5912,952.26236 L 1123.3083,949.23196 C 1116.9846,949.71466 1116.9398,946.70906 1116.4897,943.92866 L 1106.3882,934.83726 L 1074.3159,953.02006 L 1085.6801,963.87916 C 1088.8358,963.46856 1091.4132,964.09886 1091.2359,969.68756 L 1093.5088,971.45526 z "
         style="fill:none;fill-rule:evenodd;stroke:#000000;stroke-width:1px;stroke-linecap:butt;stroke-linejoin:miter;stroke-opacity:1" />
      <path
         sodipodi:nodetypes="cccccc"
         id="path3866"
         d="M 1101.4088,937.33466 L 1100.4677,936.45226 L 1080.8381,935.91656 L 1074.3619,939.65086 L 1071.4359,955.93316 L 1074.0633,959.08096"
         style="fill:none;fill-rule:evenodd;stroke:#000000;stroke-width:1px;stroke-linecap:butt;stroke-linejoin:miter;stroke-opacity:1" />
      <path
         sodipodi:nodetypes="ccc"
         id="path3868"
         d="M 1071.3111,955.94106 L 1071.4006,958.82356 L 1074.5684,962.36396"
         style="fill:none;fill-rule:evenodd;stroke:#000000;stroke-width:1px;stroke-linecap:butt;stroke-linejoin:miter;stroke-opacity:1" />
      <path
         sodipodi:nodetypes="cccc"
         id="path3870"
         d="M 1074.3159,953.27256 L 1074.1896,962.36396 L 1094.0138,980.92546 L 1099.6959,977.64246"
         style="fill:none;fill-rule:evenodd;stroke:#000000;stroke-width:1px;stroke-linecap:butt;stroke-linejoin:miter;stroke-opacity:1" />
      <path
         sodipodi:nodetypes="cc"
         id="path3872"
         d="M 1103.8629,974.99086 L 1111.8178,970.69766"
         style="fill:none;fill-rule:evenodd;stroke:#000000;stroke-width:1px;stroke-linecap:butt;stroke-linejoin:miter;stroke-opacity:1" />
      <path
         sodipodi:nodetypes="cc"
         id="path3874"
         d="M 1115.6059,968.29856 L 1123.3083,964.00546"
         style="fill:none;fill-rule:evenodd;stroke:#000000;stroke-width:1px;stroke-linecap:butt;stroke-linejoin:miter;stroke-opacity:1" />
      <path
         id="path3876"
         d="M 1126.7175,952.26236 L 1126.7175,960.72246"
         style="fill:none;fill-rule:evenodd;stroke:#000000;stroke-width:1px;stroke-linecap:butt;stroke-linejoin:miter;stroke-opacity:1" />
      <path
         id="path3878"
         d="M 1093.8876,971.32906 L 1093.8876,980.42036"
         style="fill:none;fill-rule:evenodd;stroke:#000000;stroke-width:1px;stroke-linecap:butt;stroke-linejoin:miter;stroke-opacity:1" />
      <g
         transform="translate(-1006.0933,346.89271)"
         id="g3880">
        <path
           style="fill:none;fill-rule:evenodd;stroke:#000000;stroke-width:1px;stroke-linecap:butt;stroke-linejoin:miter;stroke-opacity:1"
           d="M 2106.2311,625.13079 L 2103.832,626.2672 L 2130.7274,651.14221 L 2133.2528,649.75325 L 2106.2311,625.13079 z "
           id="path3882"
           sodipodi:nodetypes="ccccc" />
        <path
           style="fill:none;fill-rule:evenodd;stroke:#000000;stroke-width:1px;stroke-linecap:butt;stroke-linejoin:miter;stroke-opacity:1"
           d="M 2103.5795,626.01466 L 2103.5795,628.41377 L 2130.4748,653.28878 L 2133.379,651.64729 L 2133.5053,650.0058"
           id="path3884"
           sodipodi:nodetypes="ccccc" />
        <path
           style="fill:none;fill-rule:evenodd;stroke:#000000;stroke-width:1px;stroke-linecap:butt;stroke-linejoin:miter;stroke-opacity:1"
           d="M 2130.4748,651.14221 L 2130.4748,652.78371"
           id="path3886" />
      </g>
      <g
         transform="translate(-994.47646,340.20045)"
         id="g3888">
        <path
           style="fill:none;fill-rule:evenodd;stroke:#000000;stroke-width:1px;stroke-linecap:butt;stroke-linejoin:miter;stroke-opacity:1"
           d="M 2106.2311,625.13079 L 2103.832,626.2672 L 2130.7274,651.14221 L 2133.2528,649.75325 L 2106.2311,625.13079 z "
           id="path3890"
           sodipodi:nodetypes="ccccc" />
        <path
           style="fill:none;fill-rule:evenodd;stroke:#000000;stroke-width:1px;stroke-linecap:butt;stroke-linejoin:miter;stroke-opacity:1"
           d="M 2103.5795,626.01466 L 2103.5795,628.41377 L 2130.4748,653.28878 L 2133.379,651.64729 L 2133.5053,650.0058"
           id="path3892"
           sodipodi:nodetypes="ccccc" />
        <path
           style="fill:none;fill-rule:evenodd;stroke:#000000;stroke-width:1px;stroke-linecap:butt;stroke-linejoin:miter;stroke-opacity:1"
           d="M 2130.4748,651.14221 L 2130.4748,652.78371"
           id="path3894" />
      </g>
      <g
         transform="translate(-982.48086,333.00312)"
         id="g3896">
        <path
           style="fill:none;fill-rule:evenodd;stroke:#000000;stroke-width:1px;stroke-linecap:butt;stroke-linejoin:miter;stroke-opacity:1"
           d="M 2106.2311,625.13079 L 2103.832,626.2672 L 2130.7274,651.14221 L 2133.2528,649.75325 L 2106.2311,625.13079 z "
           id="path3898"
           sodipodi:nodetypes="ccccc" />
        <path
           style="fill:none;fill-rule:evenodd;stroke:#000000;stroke-width:1px;stroke-linecap:butt;stroke-linejoin:miter;stroke-opacity:1"
           d="M 2103.5795,626.01466 L 2103.5795,628.41377 L 2130.4748,653.28878 L 2133.379,651.64729 L 2133.5053,650.0058"
           id="path3900"
           sodipodi:nodetypes="ccccc" />
        <path
           style="fill:none;fill-rule:evenodd;stroke:#000000;stroke-width:1px;stroke-linecap:butt;stroke-linejoin:miter;stroke-opacity:1"
           d="M 2130.4748,651.14221 L 2130.4748,652.78371"
           id="path3902" />
      </g>
      <path
         transform="translate(-1006.2195,350.1757)"
         d="M 2096.0664 591.54321 A 6.1240497 3.5986683 0 1 1  2083.8183,591.54321 A 6.1240497 3.5986683 0 1 1  2096.0664 591.54321 z"
         sodipodi:ry="3.5986683"
         sodipodi:rx="6.1240497"
         sodipodi:cy="591.54321"
         sodipodi:cx="2089.9424"
         id="path3904"
         style="fill:none;fill-opacity:1;fill-rule:nonzero;stroke:#000000;stroke-width:1;stroke-miterlimit:4;stroke-dasharray:none;stroke-opacity:1"
         sodipodi:type="arc" />
      <path
         sodipodi:nodetypes="cc"
         id="path3906"
         d="M 1077.8514,942.66596 C 1082.4561,937.74376 1086.1051,939.82956 1089.7207,942.16086"
         style="fill:none;fill-rule:evenodd;stroke:#000000;stroke-width:1px;stroke-linecap:butt;stroke-linejoin:miter;stroke-opacity:1" />
      <path
         sodipodi:nodetypes="cccc"
         id="path3908"
         d="M 1085.6801,963.75286 L 1085.6801,969.81376 L 1091.1096,975.24336 L 1091.1096,969.68756"
         style="fill:none;fill-rule:evenodd;stroke:#000000;stroke-width:1px;stroke-linecap:butt;stroke-linejoin:miter;stroke-opacity:1" />
      <path
         sodipodi:nodetypes="cccc"
         id="path3910"
         d="M 1085.6801,969.56126 C 1088.7648,969.10146 1090.3785,971.16336 1091.1096,974.73826 L 1091.1096,974.73826 L 1090.9834,974.61206"
         style="fill:none;fill-rule:evenodd;stroke:#000000;stroke-width:1px;stroke-linecap:butt;stroke-linejoin:miter;stroke-opacity:1" />
    </g>
  </g>
</svg>
